Newaita-dark/mimetypes/24/payment-card-jcb.svg

<svg height="24pt" viewBox="0 0 24 24" width="24pt" xmlns="http://www.w3.org/2000/svg" xmlns:xlink="http://www.w3.org/1999/xlink"><linearGradient id="a" gradientUnits="userSpaceOnUse" x1="11.90736" x2="11.90736" y1="19.5369785937" y2="4.65277735335"><stop offset="0" stop-color="#42a5f5"/><stop offset="1" stop-color="#64b5f6"/></linearGradient><linearGradient id="b" gradientUnits="userSpaceOnUse" x1="12.403533" x2="12.403533" y1="19.53702825" y2="20.52931115627"><stop offset="0" stop-opacity=".27451"/><stop offset="1" stop-opacity="0"/></linearGradient><linearGradient id="c"><stop offset="0" stop-opacity=".313725"/><stop offset=".222222" stop-opacity=".27451"/><stop offset="1" stop-opacity="0"/></linearGradient><radialGradient id="d" cx="450.90894" cy="189.57936" gradientTransform="matrix(.00000013 -.0585994 -.105479 -.00000008 40.09027 46.208077)" gradientUnits="userSpaceOnUse" r="21.166656" xlink:href="#c"/><radialGradient id="e" cx="450.90894" cy="189.57936" gradientTransform="matrix(-.00000013 .0585994 .105479 .00000008 -16.275496 -7.134032)" gradientUnits="userSpaceOnUse" r="21.166656" xlink:href="#c"/><radialGradient id="f" cx="450.90894" cy="189.57936" gradientTransform="matrix(-.00000013 -.0585994 .105479 -.00000008 -16.275496 46.208077)" gradientUnits="userSpaceOnUse" r="21.166656" xlink:href="#c"/><radialGradient id="g" cx="450.90894" cy="189.57936" gradientTransform="matrix(.00000013 .0585994 -.105479 .00000008 40.090269 -7.134033)" gradientUnits="userSpaceOnUse" r="21.166656" xlink:href="#c"/><linearGradient id="h" gradientUnits="userSpaceOnUse" x1="11.907393" x2="11.907393" y1="23.01001606253" y2="1.17979540627"><stop offset="0" stop-color="#bdbdbd"/><stop offset="1" stop-color="#e0e0e0"/></linearGradient><linearGradient id="i" gradientUnits="userSpaceOnUse" x1="16.372665375" x2="16.372665375" y1="19.537026125" y2="4.652784875"><stop offset="0" stop-color="#66bb6a"/><stop offset="1" stop-color="#81c784"/></linearGradient><linearGradient id="j" gradientUnits="userSpaceOnUse" x1="11.907393" x2="11.907393" y1="19.537026125" y2="4.652784875"><stop offset="0" stop-color="#f44336"/><stop offset="1" stop-color="#ef5350"/></linearGradient><linearGradient id="k" gradientUnits="userSpaceOnUse" x1="7.69019146877" x2="7.442120625" y1="19.537026125" y2="4.652784875"><stop offset="0" stop-color="#5c6bc0"/><stop offset="1" stop-color="#7986cb"/></linearGradient><path d="m11.90625 8.125c-2.199219 0-3.96875 1.769531-3.96875 3.96875s1.769531 3.96875 3.96875 3.96875 3.96875-1.769531 3.96875-3.96875-1.769531-3.96875-3.96875-3.96875zm-1.238281 1.261719v5.417969c-1.027344-.46875-1.738281-1.503907-1.738281-2.710938 0-1.203125.710937-2.238281 1.738281-2.707031zm2.480469 0c1.027343.46875 1.734374 1.503906 1.734374 2.707031 0 1.207031-.707031 2.242188-1.734374 2.710938zm0 0" fill="url(#a)"/><path d="m3.472656 19.535156h16.867188v.996094h-16.867188zm0 0" fill="url(#b)"/><path d="m20.339844 19.535156h1.988281v-.992187h-1.988281zm0 0" fill="url(#d)"/><path d="m3.472656 19.535156h-1.984375v.996094h1.984375zm0 0" fill="url(#e)"/><path d="m3.472656 19.535156h-1.984375v-.992187h1.984375zm0 0" fill="url(#f)"/><path d="m20.339844 19.535156h1.988281v.996094h-1.988281zm0 0" fill="url(#g)"/><path d="m2.976562 4.652344h17.863282c.546875 0 .992187.445312.992187.992187v12.898438c0 .550781-.445312.992187-.992187.992187h-17.863282c-.546874 0-.992187-.441406-.992187-.992187v-12.898438c0-.546875.445313-.992187.992187-.992187zm0 0" fill="url(#h)"/><path d="m2.976562 4.652344c-.550781 0-.992187.441406-.992187.992187v.25c0-.550781.441406-.992187.992187-.992187h17.863282c.546875 0 .992187.441406.992187.992187v-.25c0-.550781-.445312-.992187-.992187-.992187zm0 0" fill="#fff" fill-opacity=".588235"/><path d="m1.984375 18.304688v.238281c0 .550781.441406.992187.992187.992187h17.863282c.546875 0 .992187-.441406.992187-.992187v-.238281c0 .550781-.445312.992187-.992187.992187h-17.863282c-.550781 0-.992187-.441406-.992187-.992187zm0 0" fill-opacity=".235294"/><path d="m63.493937-115.759477h381.046945c11.665552 0 21.164645 9.499093 21.164645 21.164646v275.140392c0 11.748878-9.499093 21.164645-21.164645 21.164645h-381.046945c-11.665553 0-21.164646-9.415767-21.164646-21.164645v-275.140392c0-11.665553 9.499093-21.164646 21.164646-21.164646zm0 0" fill="none" stroke="#212121" stroke-linecap="round" stroke-linejoin="round" stroke-width="3" transform="matrix(.0468795 0 0 .0468795 0 10.079087)"/><path d="m16 7.878906c-.6875 0-1.238281.550782-1.238281 1.238282v6.945312h2.480469c.6875 0 1.238281-.550781 1.238281-1.238281v-6.945313zm0 0" fill="url(#i)"/><path d="m11.289062 7.878906c-.6875 0-1.242187.550782-1.242187 1.238282v6.945312h2.480469c.6875 0 1.242187-.550781 1.242187-1.238281v-6.945313zm0 0" fill="url(#j)"/><path d="m6.574219 7.878906c-.6875 0-1.242188.550782-1.242188 1.238282v6.945312h2.480469c.6875 0 1.242188-.550781 1.242188-1.238281v-6.945313zm0 0" fill="url(#k)"/><g fill="none" stroke="#212121" stroke-linecap="round" stroke-linejoin="round" stroke-width="3" transform="matrix(.0468795 0 0 .0468795 0 10.079087)"><path d="m341.300741-46.932716c-14.665266 0-26.414145 11.748878-26.414145 26.414144v148.152519h52.911614c14.665267 0 26.414145-11.748878 26.414145-26.414144v-148.152519zm0 0"/><path d="m240.810337-46.932716c-14.665266 0-26.49747 11.748878-26.49747 26.414144v148.152519h52.911614c14.665267 0 26.49747-11.748878 26.49747-26.414144v-148.152519zm0 0"/><path d="m140.236608-46.932716c-14.665266 0-26.49747 11.748878-26.49747 26.414144v148.152519h52.911614c14.665267 0 26.49747-11.748878 26.49747-26.414144v-148.152519zm0 0"/></g></svg>

<?xml version="1.0" encoding="UTF-8"?>
<svg xmlns="http://www.w3.org/2000/svg" xmlns:xlink="http://www.w3.org/1999/xlink" width="24pt" height="24pt" viewBox="0 0 24 24" version="1.1">
<defs>
<linearGradient id="linear0" gradientUnits="userSpaceOnUse" x1="960" y1="1575.1182" x2="960" y2="375.1181" gradientTransform="matrix(0.0124035,0,0,0.0124035,0,0)">
<stop offset="0" style="stop-color:rgb(25.882353%,64.705882%,96.078431%);stop-opacity:1;"/>
<stop offset="1" style="stop-color:rgb(39.215686%,70.980392%,96.470588%);stop-opacity:1;"/>
</linearGradient>
<linearGradient id="linear1" gradientUnits="userSpaceOnUse" x1="254" y1="233.5" x2="254" y2="254.66667" gradientTransform="matrix(0.0468795,0,0,0.0468795,0.49614,8.590665)">
<stop offset="0" style="stop-color:rgb(0%,0%,0%);stop-opacity:0.27451;"/>
<stop offset="1" style="stop-color:rgb(0%,0%,0%);stop-opacity:0;"/>
</linearGradient>
<radialGradient id="radial0" gradientUnits="userSpaceOnUse" cx="450.90894" cy="189.57936" fx="450.90894" fy="189.57936" r="21.166656" gradientTransform="matrix(0.000000130628,-0.0585994,-0.105479,-0.0000000761539,40.09027,46.208077)">
<stop offset="0" style="stop-color:rgb(0%,0%,0%);stop-opacity:0.313725;"/>
<stop offset="0.222222" style="stop-color:rgb(0%,0%,0%);stop-opacity:0.27451;"/>
<stop offset="1" style="stop-color:rgb(0%,0%,0%);stop-opacity:0;"/>
</radialGradient>
<radialGradient id="radial1" gradientUnits="userSpaceOnUse" cx="450.90894" cy="189.57936" fx="450.90894" fy="189.57936" r="21.166656" gradientTransform="matrix(-0.000000130628,0.0585994,0.105479,0.0000000761539,-16.275496,-7.134032)">
<stop offset="0" style="stop-color:rgb(0%,0%,0%);stop-opacity:0.313725;"/>
<stop offset="0.222222" style="stop-color:rgb(0%,0%,0%);stop-opacity:0.27451;"/>
<stop offset="1" style="stop-color:rgb(0%,0%,0%);stop-opacity:0;"/>
</radialGradient>
<radialGradient id="radial2" gradientUnits="userSpaceOnUse" cx="450.90894" cy="189.57936" fx="450.90894" fy="189.57936" r="21.166656" gradientTransform="matrix(-0.000000130628,-0.0585994,0.105479,-0.0000000761539,-16.275496,46.208077)">
<stop offset="0" style="stop-color:rgb(0%,0%,0%);stop-opacity:0.313725;"/>
<stop offset="0.222222" style="stop-color:rgb(0%,0%,0%);stop-opacity:0.27451;"/>
<stop offset="1" style="stop-color:rgb(0%,0%,0%);stop-opacity:0;"/>
</radialGradient>
<radialGradient id="radial3" gradientUnits="userSpaceOnUse" cx="450.90894" cy="189.57936" fx="450.90894" fy="189.57936" r="21.166656" gradientTransform="matrix(0.000000130628,0.0585994,-0.105479,0.0000000761539,40.090269,-7.134033)">
<stop offset="0" style="stop-color:rgb(0%,0%,0%);stop-opacity:0.313725;"/>
<stop offset="0.222222" style="stop-color:rgb(0%,0%,0%);stop-opacity:0.27451;"/>
<stop offset="1" style="stop-color:rgb(0%,0%,0%);stop-opacity:0;"/>
</radialGradient>
<linearGradient id="linear2" gradientUnits="userSpaceOnUse" x1="254" y1="275.83334" x2="254" y2="-189.83333" gradientTransform="matrix(0.0468795,0,0,0.0468795,0,10.079087)">
<stop offset="0" style="stop-color:rgb(74.117647%,74.117647%,74.117647%);stop-opacity:1;"/>
<stop offset="1" style="stop-color:rgb(87.843137%,87.843137%,87.843137%);stop-opacity:1;"/>
</linearGradient>
<linearGradient id="linear3" gradientUnits="userSpaceOnUse" x1="349.25" y1="201.75" x2="349.25" y2="-115.75" gradientTransform="matrix(0.0468795,0,0,0.0468795,0,10.079087)">
<stop offset="0" style="stop-color:rgb(40%,73.333333%,41.568627%);stop-opacity:1;"/>
<stop offset="1" style="stop-color:rgb(50.588235%,78.039216%,51.764706%);stop-opacity:1;"/>
</linearGradient>
<linearGradient id="linear4" gradientUnits="userSpaceOnUse" x1="254" y1="201.75" x2="254" y2="-115.75" gradientTransform="matrix(0.0468795,0,0,0.0468795,0,10.079087)">
<stop offset="0" style="stop-color:rgb(95.686275%,26.27451%,21.176471%);stop-opacity:1;"/>
<stop offset="1" style="stop-color:rgb(93.72549%,32.54902%,31.372549%);stop-opacity:1;"/>
</linearGradient>
<linearGradient id="linear5" gradientUnits="userSpaceOnUse" x1="164.04167" y1="201.75" x2="158.75" y2="-115.75" gradientTransform="matrix(0.0468795,0,0,0.0468795,0,10.079087)">
<stop offset="0" style="stop-color:rgb(36.078431%,41.960784%,75.294118%);stop-opacity:1;"/>
<stop offset="1" style="stop-color:rgb(47.45098%,52.54902%,79.607843%);stop-opacity:1;"/>
</linearGradient>
</defs>
<g id="surface1">
<path style=" stroke:none;fill-rule:nonzero;fill:url(#linear0);" d="M 11.90625 8.125 C 9.707031 8.125 7.9375 9.894531 7.9375 12.09375 C 7.9375 14.292969 9.707031 16.0625 11.90625 16.0625 C 14.105469 16.0625 15.875 14.292969 15.875 12.09375 C 15.875 9.894531 14.105469 8.125 11.90625 8.125 Z M 10.667969 9.386719 L 10.667969 14.804688 C 9.640625 14.335938 8.929688 13.300781 8.929688 12.09375 C 8.929688 10.890625 9.640625 9.855469 10.667969 9.386719 Z M 13.148438 9.386719 C 14.175781 9.855469 14.882812 10.890625 14.882812 12.09375 C 14.882812 13.300781 14.175781 14.335938 13.148438 14.804688 Z M 13.148438 9.386719 "/>
<path style=" stroke:none;fill-rule:nonzero;fill:url(#linear1);" d="M 3.472656 19.535156 L 20.339844 19.535156 L 20.339844 20.53125 L 3.472656 20.53125 Z M 3.472656 19.535156 "/>
<path style=" stroke:none;fill-rule:nonzero;fill:url(#radial0);" d="M 20.339844 19.535156 L 22.328125 19.535156 L 22.328125 18.542969 L 20.339844 18.542969 Z M 20.339844 19.535156 "/>
<path style=" stroke:none;fill-rule:nonzero;fill:url(#radial1);" d="M 3.472656 19.535156 L 1.488281 19.535156 L 1.488281 20.53125 L 3.472656 20.53125 Z M 3.472656 19.535156 "/>
<path style=" stroke:none;fill-rule:nonzero;fill:url(#radial2);" d="M 3.472656 19.535156 L 1.488281 19.535156 L 1.488281 18.542969 L 3.472656 18.542969 Z M 3.472656 19.535156 "/>
<path style=" stroke:none;fill-rule:nonzero;fill:url(#radial3);" d="M 20.339844 19.535156 L 22.328125 19.535156 L 22.328125 20.53125 L 20.339844 20.53125 Z M 20.339844 19.535156 "/>
<path style=" stroke:none;fill-rule:nonzero;fill:url(#linear2);" d="M 2.976562 4.652344 L 20.839844 4.652344 C 21.386719 4.652344 21.832031 5.097656 21.832031 5.644531 L 21.832031 18.542969 C 21.832031 19.09375 21.386719 19.535156 20.839844 19.535156 L 2.976562 19.535156 C 2.429688 19.535156 1.984375 19.09375 1.984375 18.542969 L 1.984375 5.644531 C 1.984375 5.097656 2.429688 4.652344 2.976562 4.652344 Z M 2.976562 4.652344 "/>
<path style=" stroke:none;fill-rule:nonzero;fill:rgb(100%,100%,100%);fill-opacity:0.588235;" d="M 2.976562 4.652344 C 2.425781 4.652344 1.984375 5.09375 1.984375 5.644531 L 1.984375 5.894531 C 1.984375 5.34375 2.425781 4.902344 2.976562 4.902344 L 20.839844 4.902344 C 21.386719 4.902344 21.832031 5.34375 21.832031 5.894531 L 21.832031 5.644531 C 21.832031 5.09375 21.386719 4.652344 20.839844 4.652344 Z M 2.976562 4.652344 "/>
<path style=" stroke:none;fill-rule:nonzero;fill:rgb(0%,0%,0%);fill-opacity:0.235294;" d="M 1.984375 18.304688 L 1.984375 18.542969 C 1.984375 19.09375 2.425781 19.535156 2.976562 19.535156 L 20.839844 19.535156 C 21.386719 19.535156 21.832031 19.09375 21.832031 18.542969 L 21.832031 18.304688 C 21.832031 18.855469 21.386719 19.296875 20.839844 19.296875 L 2.976562 19.296875 C 2.425781 19.296875 1.984375 18.855469 1.984375 18.304688 Z M 1.984375 18.304688 "/>
<path style="fill:none;stroke-width:3;stroke-linecap:round;stroke-linejoin:round;stroke:rgb(12.941176%,12.941176%,12.941176%);stroke-opacity:1;stroke-miterlimit:4;" d="M 63.493937 -115.759477 L 444.540882 -115.759477 C 456.206434 -115.759477 465.705527 -106.260384 465.705527 -94.594831 L 465.705527 180.545561 C 465.705527 192.294439 456.206434 201.710206 444.540882 201.710206 L 63.493937 201.710206 C 51.828384 201.710206 42.329291 192.294439 42.329291 180.545561 L 42.329291 -94.594831 C 42.329291 -106.260384 51.828384 -115.759477 63.493937 -115.759477 Z M 63.493937 -115.759477 " transform="matrix(0.0468795,0,0,0.0468795,0,10.079087)"/>
<path style=" stroke:none;fill-rule:nonzero;fill:url(#linear3);" d="M 16 7.878906 C 15.3125 7.878906 14.761719 8.429688 14.761719 9.117188 L 14.761719 16.0625 L 17.242188 16.0625 C 17.929688 16.0625 18.480469 15.511719 18.480469 14.824219 L 18.480469 7.878906 Z M 16 7.878906 "/>
<path style=" stroke:none;fill-rule:nonzero;fill:url(#linear4);" d="M 11.289062 7.878906 C 10.601562 7.878906 10.046875 8.429688 10.046875 9.117188 L 10.046875 16.0625 L 12.527344 16.0625 C 13.214844 16.0625 13.769531 15.511719 13.769531 14.824219 L 13.769531 7.878906 Z M 11.289062 7.878906 "/>
<path style=" stroke:none;fill-rule:nonzero;fill:url(#linear5);" d="M 6.574219 7.878906 C 5.886719 7.878906 5.332031 8.429688 5.332031 9.117188 L 5.332031 16.0625 L 7.8125 16.0625 C 8.5 16.0625 9.054688 15.511719 9.054688 14.824219 L 9.054688 7.878906 Z M 6.574219 7.878906 "/>
<path style="fill:none;stroke-width:3;stroke-linecap:round;stroke-linejoin:round;stroke:rgb(12.941176%,12.941176%,12.941176%);stroke-opacity:1;stroke-miterlimit:4;" d="M 341.300741 -46.932716 C 326.635475 -46.932716 314.886596 -35.183838 314.886596 -20.518572 L 314.886596 127.633947 L 367.79821 127.633947 C 382.463477 127.633947 394.212355 115.885069 394.212355 101.219803 L 394.212355 -46.932716 Z M 341.300741 -46.932716 " transform="matrix(0.0468795,0,0,0.0468795,0,10.079087)"/>
<path style="fill:none;stroke-width:3;stroke-linecap:round;stroke-linejoin:round;stroke:rgb(12.941176%,12.941176%,12.941176%);stroke-opacity:1;stroke-miterlimit:4;" d="M 240.810337 -46.932716 C 226.145071 -46.932716 214.312867 -35.183838 214.312867 -20.518572 L 214.312867 127.633947 L 267.224481 127.633947 C 281.889748 127.633947 293.721951 115.885069 293.721951 101.219803 L 293.721951 -46.932716 Z M 240.810337 -46.932716 " transform="matrix(0.0468795,0,0,0.0468795,0,10.079087)"/>
<path style="fill:none;stroke-width:3;stroke-linecap:round;stroke-linejoin:round;stroke:rgb(12.941176%,12.941176%,12.941176%);stroke-opacity:1;stroke-miterlimit:4;" d="M 140.236608 -46.932716 C 125.571342 -46.932716 113.739138 -35.183838 113.739138 -20.518572 L 113.739138 127.633947 L 166.650752 127.633947 C 181.316019 127.633947 193.148222 115.885069 193.148222 101.219803 L 193.148222 -46.932716 Z M 140.236608 -46.932716 " transform="matrix(0.0468795,0,0,0.0468795,0,10.079087)"/>
</g>
</svg>
